X:252
T:New Bath,The. (p)1686.PLFD.252
M:6/4
L:1/4
Q:3/4=80
S:Playford, Dancing Master,7th Ed.,1686
O:England
H:1686.
Z:Chris Partington.
K:C
G|c2Gc2d|e>fed>ef|(e/f/)gcd2G|ce2-e2:|
|:a/b/|c'gag2e|a>ba/g/e>dc|(e/f/)gcB2A|BG2-G2c|
(GE)cB2c|ded/c/B>AG|(e/f/)gcd2G|ce2-e2:|
